brandFactory_export/3.Masa/Luna_3Masa.svg

<?xml version="1.0" encoding="UTF-8"?>
<svg width="24px" height="24px" viewBox="0 0 24 24" version="1.1" xmlns="http://www.w3.org/2000/svg" xmlns:xlink="http://www.w3.org/1999/xlink">
    <title>3.Masa/Luna_3Masa</title>
    <g id="Symbols" stroke="none" stroke-width="1" fill="none" fill-rule="evenodd">
        <g id="3.Masa/Luna_3Masa" fill="#5CB615" fill-rule="nonzero">
            <path d="M23.4806723,17.0756303 C23.3193277,16.9277311 23.0806723,16.9008403 22.8890756,17.0084034 C21.1714286,17.9831933 19.3226891,18.1613445 18.3647059,18.1848739 C18.1260504,18.194958 17.8268908,18.194958 17.5579832,18.194958 C15.6319328,18.1680672 9.35294118,17.4554622 9.35294118,9.58991597 C9.35294118,3.78823529 12.7042017,1.85546218 15.5142857,1.25378151 C15.7865546,1.19663866 15.9579832,0.927731092 15.9008403,0.655462185 C15.8571429,0.457142857 15.6991597,0.302521008 15.5008403,0.265546218 C14.5327731,0.087394958 13.7394958,0.0504201681 13.3462185,0.0403361345 L12.2705882,0.0302521008 C9.62857143,0.0672268908 1.00336134,1.01512605 1.00336134,11.8117647 C1.00336134,13.7579832 1.5512605,23.4789916 12.3512605,23.6571429 C12.707563,23.6571429 13.0907563,23.6571429 13.4,23.6470588 C15.1546218,23.6201681 21.0739496,23.0991597 23.594958,17.6571429 C23.6890756,17.4588235 23.6420168,17.2235294 23.4806723,17.0756303" id="Path"></path>
        </g>
    </g>
</svg>

<svg width="24" height="24" viewBox="0 0 24 24" xmlns="http://www.w3.org/2000/svg"><path d="M23.48 17.076a.508.508 0 00-.59-.068c-1.719.975-3.567 1.153-4.525 1.177-.239.01-.538.01-.807.01-1.926-.027-8.205-.74-8.205-8.605 0-5.802 3.351-7.735 6.161-8.336a.504.504 0 00-.013-.988A13.981 13.981 0 0013.346.04L12.271.03C9.629.067 1.003 1.015 1.003 11.812c0 1.946.548 11.667 11.348 11.845.357 0 .74 0 1.049-.01 1.755-.027 7.674-.548 10.195-5.99a.498.498 0 00-.114-.581" fill="#5CB615" fill-rule="nonzero"/></svg>
